Sources/FrostedUI/Resources/Icons.xcassets/twitter16.imageset/twitter-16.svg

<svg width="17" height="16" viewBox="0 0 17 16" fill="none" xmlns="http://www.w3.org/2000/svg" data-fui-icon="true">
  <path
    d="M10.8862 1.34961C11.8159 1.34976 12.6697 1.68723 13.3237 2.24414C13.7362 2.13932 14.131 1.99115 14.5005 1.80078L14.6147 1.75293C14.8831 1.66404 15.1664 1.73252 15.3628 1.90137C15.5911 2.09787 15.7061 2.43958 15.5679 2.77148C16.0183 2.81786 16.3342 3.35367 16.0356 3.79004C15.6461 4.36382 15.1668 4.87593 14.6216 5.30762C14.6218 5.33221 14.6235 5.35725 14.6235 5.38184C14.6233 9.67432 11.3029 14.6501 5.21729 14.6504C3.56485 14.6504 2.01125 14.2271 0.660645 13.4873C0.283757 13.2806 0.203917 12.8709 0.297363 12.5762C0.388257 12.2898 0.668088 12.0177 1.06689 12.0293L1.23486 12.0312C1.99483 12.0312 2.71849 11.8796 3.37744 11.6084C2.60013 11.2034 1.98329 10.5372 1.65283 9.72363C1.54276 9.45254 1.58707 9.2043 1.71533 9.0166C0.943326 8.34387 0.453673 7.36028 0.453613 6.25879C0.453613 5.97814 0.616705 5.7574 0.836426 5.65234C0.607323 5.17513 0.479035 4.64106 0.479004 4.07715C0.479004 3.47963 0.623863 2.91335 0.880371 2.41309C1.13202 1.92283 1.73888 1.88473 2.08643 2.19824L2.15186 2.26562L2.42236 2.56348C3.64779 3.84716 5.30031 4.72962 7.15869 4.99512C7.17781 2.96925 8.84941 1.34961 10.8862 1.34961ZM10.8862 2.65039C9.53654 2.65039 8.4585 3.72494 8.4585 5.03027C8.4585 5.21572 8.48021 5.39702 8.521 5.57324L8.71533 6.41113L7.85596 6.36914C5.50544 6.25265 3.38288 5.28598 1.79736 3.77539C1.7846 3.87414 1.77881 3.97504 1.77881 4.07715C1.77888 4.89767 2.20279 5.62648 2.85498 6.05566L4.77979 7.32227L2.47705 7.24805C2.29811 7.24228 2.12166 7.22225 1.94971 7.19238C2.25413 7.89037 2.88825 8.42065 3.66846 8.58496L3.70166 8.5918L5.71338 9.00098L3.8335 9.82422C3.73322 9.86813 3.62264 9.89145 3.55615 9.9043C3.47775 9.91943 3.39087 9.9312 3.30518 9.94141C3.73962 10.4167 4.36685 10.7222 5.06885 10.7344L6.92236 10.7666L5.45459 11.8984C4.76526 12.4302 3.96894 12.8329 3.10498 13.0742C3.77796 13.2531 4.48596 13.3496 5.21729 13.3496C10.4537 13.3494 13.3235 9.09496 13.3237 5.38184C13.3237 5.26276 13.3205 5.14086 13.3149 5.01953L13.2993 4.66602L13.5874 4.45996C13.6009 4.45032 13.614 4.43944 13.6274 4.42969C13.469 4.34122 13.3554 4.19743 13.3032 4.05469C13.2531 3.91726 13.246 3.74607 13.3003 3.58398C13.2854 3.58696 13.2703 3.59086 13.2554 3.59375L12.9067 3.66113L12.6626 3.40527C12.2199 2.94187 11.5881 2.65056 10.8862 2.65039Z"
    fill="currentColor"
  />
</svg>

<svg xmlns="http://www.w3.org/2000/svg" width="17" height="16" fill="none" data-fui-icon="true" viewBox="0 0 17 16"><path fill="currentColor" d="M10.886 1.35c.93 0 1.784.337 2.438.894a5.6 5.6 0 0 0 1.177-.443l.114-.048a.78.78 0 0 1 .748.148.76.76 0 0 1 .205.87c.45.047.766.583.468 1.019a6.8 6.8 0 0 1-1.414 1.518l.002.074c0 4.292-3.321 9.268-9.407 9.268a9.46 9.46 0 0 1-4.556-1.163.77.77 0 0 1-.364-.91.78.78 0 0 1 .77-.548l.168.002c.76 0 1.483-.151 2.142-.423a3.7 3.7 0 0 1-1.724-1.884.73.73 0 0 1 .062-.707A3.65 3.65 0 0 1 .454 6.259c0-.28.163-.502.382-.607a3.639 3.639 0 0 1 .044-3.24c.252-.49.859-.527 1.206-.214l.066.068.27.297A8.13 8.13 0 0 0 7.16 4.995c.019-2.026 1.69-3.645 3.727-3.645m0 1.3c-1.35 0-2.427 1.075-2.427 2.38q0 .279.062.543l.194.838-.859-.042a9.44 9.44 0 0 1-6.059-2.594q-.018.15-.018.302c0 .82.424 1.55 1.076 1.979L4.78 7.322l-2.303-.074a4 4 0 0 1-.527-.056 2.42 2.42 0 0 0 1.718 1.393l.034.007L5.713 9l-1.88.823c-.1.044-.21.067-.277.08a4 4 0 0 1-.25.037c.434.476 1.06.781 1.763.793l1.853.033-1.467 1.131a6.9 6.9 0 0 1-2.35 1.176 8.2 8.2 0 0 0 2.112.276c5.237 0 8.107-4.255 8.107-7.968q0-.18-.01-.362l-.015-.354.288-.206.04-.03a.73.73 0 0 1-.324-.375.73.73 0 0 1-.003-.471l-.045.01-.348.067-.244-.256a2.45 2.45 0 0 0-1.777-.755"/></svg>
